assets/Ice cream/Flat/ice_cream_flat.svg

<svg width="32" height="32" viewBox="0 0 32 32" fill="none" xmlns="http://www.w3.org/2000/svg">
<path d="M26.778 4.43898C27.0765 4.05895 27.0104 3.50889 26.6304 3.21037C26.2503 2.91186 25.7003 2.97795 25.4017 3.35797L19.2418 11.2C18.9433 11.58 19.0094 12.1301 19.3894 12.4286C19.6011 12.5949 19.8655 12.648 20.1098 12.5969C20.1268 12.6862 20.1581 12.7745 20.2046 12.8584C20.4392 13.2809 20.9718 13.4333 21.3943 13.1988L29.4429 8.73165C29.8655 8.49714 30.0179 7.9645 29.7834 7.54196C29.5489 7.11943 29.0162 6.96702 28.5937 7.20153L21.5272 11.1236L26.778 4.43898Z" fill="#E19747"/>
<path d="M15.5895 17.75C15.5895 21.4779 12.5674 24.5 8.83952 24.5C5.1116 24.5 2.08952 21.4779 2.08952 17.75C2.08952 14.0221 5.1116 11 8.83952 11C12.5674 11 15.5895 14.0221 15.5895 17.75Z" fill="#6D4534"/>
<path d="M29.0102 17.625C29.0102 21.3529 25.9881 24.375 22.2602 24.375C18.5323 24.375 15.5102 21.3529 15.5102 17.625C15.5102 13.8971 18.5323 10.875 22.2602 10.875C25.9881 10.875 29.0102 13.8971 29.0102 17.625Z" fill="#FF8687"/>
<path d="M24.0781 14.9219C24.0781 19.3833 20.4614 23 16 23C11.5386 23 7.92189 19.3833 7.92189 14.9219C7.92189 10.4604 11.5386 6.84375 16 6.84375C20.4614 6.84375 24.0781 10.4604 24.0781 14.9219Z" fill="#FEEFC2"/>
<path d="M2.72242 21.0415H13.3944H17.5437H28.2156C28.8377 21.0415 29.1855 21.7515 28.7957 22.2364C27.9754 23.2568 26.8151 24.6495 26.1405 25.2352C25.4149 25.8652 23.97 26.7859 23.0366 27.3597C22.4671 27.7097 21.9848 28.1856 21.6405 28.7585L21.5055 28.9831C21.1439 29.5848 20.4933 29.9529 19.7913 29.9529H17.5437H13.3944H11.1467C10.4447 29.9529 9.79409 29.5848 9.43248 28.9831L9.29752 28.7585C8.9532 28.1856 8.47091 27.7097 7.90144 27.3597C6.96798 26.7859 5.52314 25.8652 4.79753 25.2352C4.12292 24.6495 2.9626 23.2568 2.14234 22.2364C1.75254 21.7515 2.10027 21.0415 2.72242 21.0415Z" fill="#00A6ED"/>
<path d="M17.9493 5.98328C17.9493 7.07861 17.2246 7.84562 15.966 7.84562C14.7075 7.84562 13.9828 7.07861 13.9828 5.98328C13.9828 4.88794 14.8707 4 15.966 4C17.0614 4 17.9493 4.88794 17.9493 5.98328Z" fill="#F8312F"/>
</svg>

<svg xmlns="http://www.w3.org/2000/svg" width="32" height="32" fill="none"><path fill="#E19747" d="M26.778 4.439a.875.875 0 0 0-1.376-1.081l-6.16 7.842a.875.875 0 0 0 .868 1.397.877.877 0 0 0 1.284.602l8.049-4.467a.875.875 0 1 0-.85-1.53l-7.066 3.922 5.251-6.685Z"/><path fill="#6D4534" d="M15.59 17.75a6.75 6.75 0 1 1-13.5 0 6.75 6.75 0 0 1 13.5 0Z"/><path fill="#FF8687" d="M29.01 17.625a6.75 6.75 0 1 1-13.5 0 6.75 6.75 0 0 1 13.5 0Z"/><path fill="#FEEFC2" d="M24.078 14.922a8.078 8.078 0 1 1-16.156 0 8.078 8.078 0 0 1 16.156 0Z"/><path fill="#00A6ED" d="M2.722 21.041h25.494c.622 0 .97.71.58 1.195-.82 1.02-1.98 2.413-2.655 3-.726.63-2.171 1.55-3.104 2.124-.57.35-1.052.826-1.396 1.399l-.135.224a2 2 0 0 1-1.715.97h-8.644a2 2 0 0 1-1.715-.97l-.134-.224a4.169 4.169 0 0 0-1.397-1.4c-.933-.573-2.378-1.494-3.103-2.124-.675-.585-1.835-1.978-2.656-2.999a.734.734 0 0 1 .58-1.195Z"/><path fill="#F8312F" d="M17.95 5.983c0 1.096-.725 1.863-1.984 1.863-1.258 0-1.983-.767-1.983-1.863a1.983 1.983 0 1 1 3.966 0Z"/></svg>
